public/assets/imgs/logo-redux.svg

<svg fill="none" height="89" viewBox="0 0 87 89" width="87" xmlns="http://www.w3.org/2000/svg"><path clip-rule="evenodd" d="m22.6587 0h-22.6587v88.3056h23.2867l20.0812-20.3171 19.55 20.3171h23.6936v-88.3056h-23.0823l-20.1613 20.9524zm20.7092 20.9524 20.1613 20.9524h-40.8705z" fill="#fff" fill-rule="evenodd"/></svg>

<svg width="87" height="89" viewBox="0 0 87 89" fill="none" xmlns="http://www.w3.org/2000/svg">
<path fill-rule="evenodd" clip-rule="evenodd" d="M22.6587 0H0V88.3056H23.2867L43.3679 67.9885L62.9179 88.3056H86.6115V0H63.5292L43.3679 20.9524L22.6587 0ZM43.3679 20.9524L63.5292 41.9048H22.6587L43.3679 20.9524Z" fill="white"/>
</svg>
